packages/core/src/svgs/tokens/branded/NFAI.svg

<svg width="24" height="24" viewBox="0 0 24 24" fill="none" xmlns="http://www.w3.org/2000/svg">
<path d="M13.9172 15.156L14.1506 15.2116C14.2228 15.2282 14.3005 15.256 14.3783 15.2615C14.4449 15.2727 14.5005 15.2116 14.5283 15.1616C14.5394 15.1449 14.5504 15.1449 14.5672 15.1449C14.5818 15.1451 14.5958 15.1511 14.6061 15.1616C14.6617 15.2282 14.6838 15.3116 14.6617 15.4005C14.6356 15.4809 14.58 15.5484 14.5061 15.5894C14.3629 15.6538 14.2015 15.6656 14.0505 15.6227C13.9117 15.5894 13.7338 15.5116 13.6506 15.3949C13.6506 15.3838 13.6395 15.3838 13.6395 15.3782C13.6395 15.3616 13.6172 15.3505 13.6006 15.3449C13.5894 15.3337 13.5783 15.3283 13.5617 15.3283C13.395 15.3672 13.2283 15.3616 13.0673 15.3116C13.045 15.3004 13.0395 15.2838 13.0284 15.2615C13.0284 15.2394 13.0395 15.2227 13.0617 15.2116C13.2562 15.1116 13.4506 15.0227 13.6006 14.8617C13.6506 14.8116 13.6949 14.7727 13.7506 14.7394C14.006 14.5839 14.3895 14.5506 14.6228 14.7616C14.7005 14.8338 14.7394 14.9727 14.6727 15.0727C14.6617 15.0894 14.6449 15.1004 14.6228 15.1004C14.6142 15.1 14.6061 15.0972 14.5992 15.0923C14.5923 15.0873 14.587 15.0806 14.5839 15.0727C14.5227 14.9672 14.4172 14.9727 14.3171 14.9838C14.1652 15.0015 14.023 15.0678 13.9117 15.1728L13.9172 15.156ZM15.2282 19.5946C15.3671 19.7001 15.456 19.889 15.3782 20.0613C15.3282 20.228 15.2338 20.3889 15.0615 20.439C15.0005 20.4613 14.9393 20.4613 14.8671 20.4667L14.756 20.4779C14.756 20.5112 14.7672 20.5445 14.7727 20.5668L14.7893 20.7335C14.7949 20.9168 14.756 21.1168 14.6617 21.2779C14.5616 21.4667 14.406 21.6 14.206 21.6722C14.1839 21.6833 14.1616 21.6722 14.145 21.65C14.1283 21.6223 14.1283 21.5944 14.145 21.5834C14.3783 21.2889 14.3783 20.9722 14.3117 20.6168C14.2728 20.4779 14.2728 20.3223 14.3783 20.2057C14.4894 20.0946 14.6617 20.0668 14.8116 20.0668C14.8615 20.0668 14.9116 20.0779 14.9616 20.0613C15.0005 20.0335 15.0394 19.9668 15.0727 19.9279C15.0894 19.9057 15.1004 19.878 15.1116 19.8445V19.8391C15.1283 19.7723 15.0894 19.689 15.0505 19.6279C14.906 19.6447 14.7672 19.6447 14.6228 19.6279C14.2814 19.5811 13.946 19.4973 13.6227 19.3779C13.595 19.3725 13.5783 19.339 13.5894 19.3169C13.595 19.2891 13.6172 19.2724 13.645 19.2724C14.0728 19.3557 14.5339 19.4279 14.9616 19.3835C15.1726 19.3446 15.3616 19.2391 15.506 19.078V19.0502C15.506 18.9391 15.4893 18.8169 15.4783 18.7002C15.4727 18.578 15.4727 18.4446 15.5116 18.3225C15.556 18.1558 15.7559 18.0892 15.9004 18.0448L16.2949 17.9391C16.4115 17.9058 16.5336 17.8725 16.6337 17.817C16.6307 17.7487 16.6117 17.6821 16.5781 17.6226C16.531 17.547 16.4791 17.4747 16.4226 17.4059C16.3671 17.3225 16.3282 17.2281 16.2893 17.1392C16.1338 16.7615 15.9838 16.3837 15.8448 16.0004C15.7338 15.6671 15.6448 15.3116 15.8337 14.9893C15.9503 14.7949 16.1338 14.6561 16.2949 14.5005C16.5392 14.2228 16.3837 13.6839 16.256 13.3784C16.1852 13.1294 16.1644 12.8689 16.1948 12.6117C16.1948 12.584 16.2171 12.5562 16.2393 12.5562C16.267 12.5562 16.2893 12.5784 16.2949 12.6117C16.3338 12.845 16.3615 13.0839 16.4559 13.3062C16.5671 13.5172 16.6782 13.7506 16.7115 14.0006C16.7615 14.2616 16.7281 14.5227 16.5615 14.7283C16.467 14.8394 16.3615 14.9339 16.2726 15.0394C16.2004 15.1283 16.1338 15.245 16.1393 15.3726C16.1338 15.5393 16.2171 15.7226 16.2726 15.8727C16.4281 16.2949 16.5948 16.7059 16.7725 17.1059C16.8058 17.167 16.8447 17.2281 16.8948 17.2726C16.9504 17.3392 16.9948 17.4059 17.0281 17.4892C17.1281 17.7169 17.1448 18.0114 16.8948 18.1447C16.7336 18.2336 16.5392 18.2836 16.3615 18.3225L16.0949 18.378L15.8949 18.4336C15.856 18.578 15.8726 18.8335 15.8726 18.9724C15.8726 19.0225 15.8726 19.0668 15.856 19.128C15.8393 19.189 15.8171 19.2502 15.7615 19.2835L15.7449 19.2891L15.6837 19.339C15.5505 19.4502 15.3949 19.5334 15.2227 19.5835L15.2282 19.5946ZM18.7447 11.3007C18.4002 11.6507 17.8669 11.534 17.4447 11.4451C16.6503 11.2674 15.856 11.0841 15.0505 11.1174C15.0171 11.1174 14.9949 11.0951 14.9949 11.0674C14.9949 11.0397 15.0061 11.0119 15.0394 11.0119C15.456 10.9619 15.8726 10.973 16.2782 11.0119C16.6892 11.0508 17.0948 11.123 17.5058 11.1952C17.6725 11.2174 17.8392 11.2507 18.0003 11.2563C18.1002 11.2674 18.2113 11.2563 18.317 11.2174C18.4113 11.1785 18.4835 11.1174 18.5503 11.0397C18.6446 10.923 18.728 10.7896 18.8113 10.6674C18.9336 10.4619 19.1001 10.2897 19.3334 10.2452C19.4668 10.1897 19.5946 10.0731 19.6946 9.96745C19.7723 9.88418 19.8613 9.76196 19.9113 9.65086C19.8057 9.60641 19.6834 9.58975 19.5723 9.57308C19.3451 9.53948 19.1137 9.54701 18.8891 9.59531C18.8169 9.61198 18.7447 9.62308 18.678 9.61198C18.3447 9.58975 18.0392 9.47309 17.7281 9.3731C17.3392 9.24533 16.9614 9.09533 16.5892 8.92868C16.2171 8.7787 15.8504 8.61204 15.4893 8.4565C15.1782 8.33143 14.8894 8.15697 14.6338 7.93987C14.5116 7.84543 14.3949 7.73988 14.2838 7.62877C14.1895 7.52323 14.0894 7.40657 14.0172 7.27879C13.9617 7.16769 13.9228 7.05104 13.9727 6.93438C13.9972 6.8866 14.0361 6.84773 14.0838 6.82328L12.8617 5.96222C12.7728 5.90667 12.6617 5.86223 12.5562 5.85112H12.5173L12.3618 5.84C11.2397 5.72334 10.1064 5.60669 8.98427 5.47892C8.95641 5.47892 8.93981 5.44559 8.93981 5.42338C8.93981 5.39004 8.96198 5.36782 8.99529 5.36782C10.2008 5.41227 11.4062 5.48448 12.6117 5.55114C12.8673 5.5678 13.0951 5.72334 13.2951 5.86223L14.2782 6.50107L14.5227 6.66773C14.5949 6.71217 14.6617 6.75662 14.7171 6.82328C14.756 6.86771 14.7783 6.93438 14.7672 7.00104C14.7604 7.03636 14.7446 7.06931 14.7213 7.09661C14.6978 7.12389 14.6678 7.14458 14.6338 7.15659C14.5774 7.17946 14.517 7.19079 14.4561 7.18991C14.7147 7.51876 15.0429 7.78626 15.4171 7.9732C15.8616 8.17874 16.3226 8.36761 16.7781 8.56204C17.1418 8.72025 17.5105 8.8666 17.8836 9.0009C18.1614 9.08979 18.4502 9.20088 18.7391 9.21199C19.0327 9.14554 19.3363 9.13611 19.6335 9.18423C19.8613 9.22866 20.2946 9.29533 20.3335 9.58975V9.59531C20.339 9.75085 20.2834 9.83417 20.2168 9.95083C20.0946 10.1286 19.9502 10.2841 19.7835 10.4063C19.6557 10.5064 19.4946 10.5842 19.339 10.6175C19.3113 10.6285 19.2835 10.6508 19.2668 10.673C19.1725 10.7563 19.1001 10.873 19.0224 10.9785C18.9336 11.1007 18.8558 11.2174 18.7447 11.3119V11.3007ZM16.5059 11.9841C16.267 11.9285 16.0115 11.9063 15.7726 11.8784L15.0005 11.8285L13.534 11.7674C13.1617 11.7562 12.784 11.7729 12.4173 11.7674C12.284 11.7562 12.1506 11.7562 12.0284 11.7007C12.0007 11.6896 11.984 11.6618 11.9951 11.6341C11.9987 11.6223 12.0062 11.6122 12.0162 11.6052C12.0263 11.5981 12.0384 11.5946 12.0507 11.5952C12.1618 11.6118 12.2896 11.5841 12.4007 11.5674C12.5284 11.5508 12.645 11.5174 12.7728 11.5119C13.7727 11.3452 14.7893 11.3729 15.7838 11.4786C16.0782 11.5119 16.3726 11.5618 16.6503 11.6674H16.6559C16.6837 11.673 16.7059 11.6896 16.7281 11.7007C16.7504 11.7063 16.7781 11.7229 16.8004 11.7396C17.1225 11.9396 17.4892 11.8062 17.7447 11.5508C17.7558 11.534 17.7891 11.534 17.8114 11.5508C17.8336 11.5674 17.8336 11.6062 17.828 11.6174C17.7281 11.8285 17.5392 11.9841 17.3281 12.0619C17.0948 12.1396 16.8447 12.1285 16.617 12.0174L16.517 11.9785L16.5059 11.9841ZM13.4283 7.92875C13.1395 8.50649 12.1895 8.30095 11.7285 8.10652C11.5508 8.0343 11.4062 7.93987 11.2285 7.88431C11.2008 7.87875 11.1841 7.86208 11.1841 7.83432C11.1842 7.82366 11.1874 7.81328 11.1934 7.80442C11.1994 7.79556 11.2077 7.78858 11.2174 7.78431C11.3174 7.74544 11.4395 7.73988 11.5396 7.73988C11.8174 7.75655 12.0952 7.81209 12.3728 7.86208C12.7173 7.91764 13.0229 8.00097 13.3617 7.85098C13.3715 7.84837 13.382 7.84855 13.3918 7.85149C13.4016 7.85442 13.4104 7.86002 13.4173 7.86765C13.4395 7.88431 13.4395 7.91209 13.4283 7.93431V7.9232V7.92875ZM7.63988 5.04006C7.64356 4.52788 7.76721 4.02369 8.00096 3.56795C8.11026 3.32081 8.2685 3.0984 8.46618 2.91413C8.66372 2.72986 8.89665 2.58755 9.15084 2.49579C9.17313 2.49024 9.1953 2.49579 9.21202 2.52357C9.22861 2.5458 9.22304 2.57358 9.20644 2.59023C8.84532 2.9291 8.65089 3.34018 8.41757 3.76793L8.09539 4.41234C7.98429 4.63453 7.87319 4.85674 7.74541 5.06228C7.72876 5.07895 7.70653 5.09562 7.68987 5.08451C7.66764 5.07895 7.65098 5.06228 7.65098 5.03451L7.63988 5.04562V5.04006ZM10.0841 5.27338C9.66413 5.00561 9.3441 4.60695 9.17339 4.13903C9.00268 3.6711 8.99089 3.15998 9.13982 2.68467C9.15084 2.66246 9.16756 2.64579 9.18972 2.64579C9.21202 2.64579 9.22861 2.66246 9.23418 2.68467C9.35641 3.06243 9.43419 3.44573 9.55085 3.82348C9.70639 4.30679 9.9064 4.76786 10.1453 5.20117C10.1619 5.22338 10.1563 5.25116 10.1397 5.26227C10.123 5.27894 10.1008 5.29005 10.0785 5.27338H10.0841ZM15.6949 14.5339C15.4783 14.4228 15.2504 14.3227 15.0282 14.2561C14.8668 14.2047 14.6976 14.1822 14.5283 14.1894C14.3616 14.195 14.195 14.2228 14.0283 14.2561C13.7894 14.295 13.5561 14.345 13.3228 14.3783H13.3117C13.1728 14.3839 13.0229 14.3839 12.8895 14.3283C12.8673 14.3227 12.8506 14.295 12.8562 14.2728C12.8562 14.2449 12.8783 14.2283 12.9062 14.2172C13.0173 14.206 13.1284 14.1617 13.2395 14.1228C13.445 14.0339 13.6561 13.945 13.8784 13.8672C14.1005 13.795 14.3394 13.7561 14.5783 13.7617C15.0338 13.7783 15.5116 14.0505 15.7615 14.4505C15.7782 14.4782 15.7726 14.5005 15.7559 14.5171C15.7484 14.527 15.7376 14.534 15.7256 14.5371C15.7134 14.5401 15.7007 14.5389 15.6893 14.5339H15.7004H15.6949ZM12.4117 17.1948C11.5229 17.1614 10.6175 16.9171 9.8342 16.4893C9.0754 16.1021 8.44466 15.5042 8.01762 14.7672C7.76189 14.2986 7.61564 13.7782 7.58987 13.245C7.58987 13.2229 7.60098 13.2006 7.62875 13.1896C7.65098 13.184 7.6732 13.2006 7.68987 13.2229C7.86207 13.7061 8.06762 14.1727 8.35652 14.5895C9.27864 15.9505 10.923 16.7003 12.4229 17.0892C12.4506 17.0948 12.4729 17.1225 12.4617 17.1448C12.4617 17.167 12.4396 17.1948 12.4063 17.1948H12.4117ZM10.8897 14.0395C10.873 13.7061 10.9675 13.3784 11.1396 13.0951C11.4818 12.5671 11.9869 12.1653 12.5784 11.9506C12.6007 11.9396 12.634 11.9506 12.6396 11.9729C12.6461 11.9849 12.6481 11.9989 12.645 12.0122C12.6419 12.0256 12.634 12.0372 12.6229 12.0451C12.084 12.434 11.4674 12.9896 11.3673 13.7061C11.2507 14.9116 11.823 16.056 12.6061 16.9003C12.6148 16.9104 12.6195 16.9233 12.6195 16.9365C12.6195 16.9497 12.6148 16.9626 12.6061 16.9725C12.5895 16.9948 12.5618 16.9948 12.5395 16.9837C12.0306 16.656 11.6108 16.2075 11.3174 15.6783C11.0397 15.1782 10.8786 14.6172 10.8786 14.0339L10.8897 14.0395ZM13.1673 10.7841C11.8563 10.7008 10.5119 10.6175 9.20644 10.8897L9.03975 10.9286C8.98427 10.9452 8.91752 10.9563 8.87306 10.9841C8.66761 11.0397 8.47875 11.1174 8.27316 11.1785C7.91763 11.2563 7.53433 11.2841 7.18435 11.2174C6.51177 11.0901 5.91128 10.7155 5.50112 10.1675C5.48447 10.1453 5.48447 10.112 5.50668 10.0953C5.52335 10.0787 5.55668 10.0731 5.57891 10.0953C5.81777 10.3008 6.07887 10.473 6.36218 10.6119C6.91742 10.891 7.55532 10.9581 8.1565 10.8008C8.30649 10.7452 8.46203 10.6897 8.612 10.6452C8.7787 10.5896 8.94539 10.5341 9.1231 10.4953C10.473 10.2286 11.8784 10.3509 13.2061 10.6841C13.2283 10.6953 13.2506 10.7174 13.245 10.7507C13.2339 10.773 13.2117 10.8008 13.1894 10.8008L13.1673 10.7841ZM6.69549 7.57322C7.57321 8.01764 8.4842 8.40094 9.41202 8.73981C9.54527 8.79535 9.68967 8.83424 9.81748 8.9009C9.84521 8.90646 9.86194 8.93424 9.85079 8.95646C9.84521 8.98424 9.82862 9.0009 9.80633 9.0009C9.19633 9.0237 8.58906 8.90982 8.02874 8.66759C7.4864 8.4559 7.008 8.10762 6.63994 7.65655C6.63272 7.64694 6.62883 7.63524 6.62883 7.62322C6.62883 7.6112 6.63272 7.5995 6.63994 7.58988C6.64722 7.58121 6.65696 7.57497 6.66789 7.57199C6.6788 7.56901 6.69038 7.56944 6.70105 7.57322H6.69549ZM4.41232 8.15652C4.18178 7.66345 4.0425 7.13268 4.00123 6.58996C3.90378 5.22911 4.23815 3.87221 4.95672 2.71245C5.10115 2.47357 5.26782 2.25137 5.42891 2.02361C5.44558 1.99583 5.47891 1.99583 5.50112 2.00694C5.52335 2.02361 5.53446 2.04583 5.52335 2.0736C5.38448 2.44025 5.21226 2.79577 5.0845 3.17909C4.45543 4.74059 4.25968 6.44298 4.51786 8.10652C4.52898 8.12874 4.51231 8.16207 4.49008 8.17317C4.46232 8.17873 4.43454 8.17317 4.42343 8.14541L4.41232 8.15652ZM7.32879 5.55114C7.45099 5.72891 7.51209 5.96778 7.48988 6.18999C7.4621 6.43442 7.33989 6.63996 7.13434 6.76216C7.11213 6.77883 7.08991 6.77328 7.06213 6.74551C7.05446 6.73502 7.05032 6.72238 7.05032 6.70939C7.05032 6.69641 7.05446 6.68376 7.06213 6.67328C7.37878 6.30664 7.15101 5.87334 6.85103 5.58447C6.31949 5.0446 5.94006 4.37385 5.75111 3.64016C5.65129 3.24554 5.64179 2.83349 5.72333 2.43469C5.72889 2.40691 5.74556 2.39025 5.77889 2.39025C5.79189 2.38998 5.80456 2.39428 5.81471 2.40241C5.82486 2.41053 5.83184 2.42196 5.83444 2.43469C5.90111 2.80688 5.98999 3.18463 6.13442 3.53461C6.33996 4.07902 6.63994 4.5901 6.96769 5.05117C7.08991 5.21782 7.22878 5.37338 7.32879 5.55114ZM12.2562 21.9944C11.4144 21.9111 10.6076 21.6148 9.91197 21.1334C8.62069 20.2383 7.68015 18.9228 7.25101 17.4114C7.02881 16.7115 6.90659 15.9838 6.8677 15.256C6.86744 15.243 6.87174 15.2303 6.87986 15.2202C6.88799 15.2101 6.89941 15.2031 6.91215 15.2005C6.93992 15.1893 6.96769 15.2116 6.9788 15.2394C7.35655 16.6559 7.80097 18.028 8.6343 19.2391C9.48694 20.5367 10.7852 21.4774 12.284 21.8833C12.3118 21.8945 12.3339 21.9167 12.3229 21.95C12.3173 21.9778 12.295 22 12.2673 22L12.2562 21.9944ZM4.32899 11.3729C4.17902 12.1308 4.09537 12.9004 4.079 13.6728C4.06233 14.4505 4.12345 15.2227 4.25676 15.9838C4.52898 17.544 5.18152 19.0132 6.15664 20.2613C6.43995 20.6334 6.76771 20.9778 7.08435 21.3168C7.10102 21.3445 7.10658 21.3722 7.08435 21.3945C7.06769 21.4167 7.03991 21.4167 7.01214 21.4C5.30552 20.0928 4.1581 18.1869 3.80125 16.0671C3.52349 14.4838 3.67903 12.8284 4.21788 11.334C4.229 11.3063 4.25678 11.2896 4.27899 11.3007C4.30677 11.3063 4.32343 11.334 4.32343 11.3619L4.32899 11.3729Z" fill="white"/>
</svg>

<svg xmlns="http://www.w3.org/2000/svg" width="24" height="24" fill="none" viewBox="0 0 24 24">
    <path fill="#fff" d="m13.917 15.156.234.056c.072.016.15.044.227.05.067.01.123-.05.15-.1.011-.017.022-.017.04-.017q.022 0 .038.017c.056.066.078.15.056.238a.33.33 0 0 1-.156.19.67.67 0 0 1-.456.033c-.138-.034-.316-.111-.4-.228 0-.011-.01-.011-.01-.017 0-.016-.023-.027-.04-.033a.05.05 0 0 0-.038-.017.93.93 0 0 1-.495-.016c-.022-.012-.027-.028-.039-.05q0-.035.034-.05c.194-.1.389-.19.539-.35a.8.8 0 0 1 .15-.123c.255-.155.639-.188.872.023.078.072.116.21.05.31a.06.06 0 0 1-.05.028.04.04 0 0 1-.04-.027c-.06-.106-.166-.1-.266-.09a.7.7 0 0 0-.405.19zm1.311 4.439c.14.105.228.294.15.466-.05.167-.144.328-.316.378-.061.022-.123.022-.195.028l-.111.01c0 .034.011.067.017.09l.016.166c.006.184-.033.384-.127.545a.82.82 0 0 1-.456.394c-.022.011-.044 0-.061-.022-.017-.028-.017-.056 0-.067.233-.294.233-.61.167-.966-.04-.14-.04-.295.066-.411.111-.111.284-.14.434-.14.05 0 .1.012.15-.005.039-.027.077-.094.11-.133a.3.3 0 0 0 .04-.084v-.005c.016-.067-.023-.15-.062-.211a1.8 1.8 0 0 1-.427 0 4.8 4.8 0 0 1-1-.25c-.028-.006-.045-.039-.034-.061a.054.054 0 0 1 .056-.045c.428.084.889.156 1.317.112a.96.96 0 0 0 .544-.306v-.028c0-.11-.017-.233-.028-.35a1.1 1.1 0 0 1 .034-.377c.044-.167.244-.234.388-.278l.395-.106c.116-.033.239-.067.339-.122a.4.4 0 0 0-.056-.194 2 2 0 0 0-.155-.217c-.056-.083-.095-.178-.134-.267A29 29 0 0 1 15.845 16c-.111-.333-.2-.688-.011-1.01.116-.195.3-.334.46-.49.245-.277.09-.816-.038-1.122a2 2 0 0 1-.061-.766c0-.028.022-.056.044-.056.028 0 .05.022.056.056.039.233.066.472.16.694.112.211.223.445.257.695.05.26.016.522-.15.727-.095.111-.2.206-.29.311a.5.5 0 0 0-.133.334c-.005.166.078.35.134.5q.233.633.5 1.233a.6.6 0 0 0 .122.167.8.8 0 0 1 .133.216c.1.228.117.522-.133.656a2 2 0 0 1-.534.178l-.266.055-.2.056c-.039.144-.022.4-.022.538 0 .05 0 .095-.017.156s-.039.122-.095.155l-.016.006-.061.05a1.3 1.3 0 0 1-.461.245zm3.517-8.294c-.345.35-.878.233-1.3.144-.795-.178-1.589-.36-2.395-.328-.033 0-.055-.022-.055-.05 0-.027.011-.055.044-.055a5.8 5.8 0 0 1 1.24 0c.41.039.816.111 1.227.183.166.022.333.056.494.061.1.011.211 0 .317-.039a.6.6 0 0 0 .233-.177c.095-.117.178-.25.261-.373.123-.205.29-.377.522-.422.134-.055.262-.172.362-.278.077-.083.166-.205.216-.316-.105-.045-.228-.061-.339-.078a1.9 1.9 0 0 0-.683.022.6.6 0 0 1-.211.017c-.333-.022-.639-.139-.95-.239a12 12 0 0 1-1.139-.444c-.372-.15-.739-.317-1.1-.473-.31-.125-.6-.299-.855-.516a4 4 0 0 1-.35-.311 2 2 0 0 1-.267-.35c-.055-.111-.094-.228-.044-.345a.26.26 0 0 1 .11-.11l-1.221-.862a.75.75 0 0 0-.306-.11h-.039l-.155-.012c-1.122-.117-2.256-.233-3.378-.361-.028 0-.044-.033-.044-.056 0-.033.022-.055.055-.055 1.206.044 2.411.116 3.617.183.255.017.483.172.683.311l.983.64.245.166a.8.8 0 0 1 .194.155.22.22 0 0 1 .05.178.21.21 0 0 1-.133.156.5.5 0 0 1-.178.033c.259.329.587.596.961.783.445.206.906.395 1.361.589q.546.238 1.106.439c.277.089.566.2.855.211a2.4 2.4 0 0 1 .895-.028c.227.045.66.111.7.406v.005c.005.156-.05.24-.117.356a1.9 1.9 0 0 1-.433.455 1.1 1.1 0 0 1-.445.211.2.2 0 0 0-.072.056c-.095.083-.167.2-.245.306-.088.122-.166.238-.277.333zm-2.24.683c-.238-.056-.493-.078-.732-.106l-.772-.05-1.467-.06c-.372-.012-.75.005-1.117 0-.133-.012-.266-.012-.389-.067-.027-.011-.044-.04-.033-.067a.055.055 0 0 1 .056-.039c.11.017.239-.01.35-.028.127-.016.244-.05.372-.055 1-.167 2.016-.14 3.01-.033.295.033.59.083.867.188h.006c.028.006.05.023.072.034.022.005.05.022.072.039.322.2.69.066.945-.19.01-.016.044-.016.066 0 .023.017.023.056.017.067a.9.9 0 0 1-.5.445.93.93 0 0 1-.711-.045l-.1-.038zM13.429 7.93c-.289.577-1.239.372-1.7.178-.177-.073-.322-.167-.5-.223q-.042-.008-.044-.05 0-.015.01-.03a.1.1 0 0 1 .023-.02.9.9 0 0 1 .323-.044c.277.017.555.072.833.122.344.056.65.139.989-.011a.06.06 0 0 1 .055.017c.023.016.023.044.011.066v-.01zM7.64 5.04A3.3 3.3 0 0 1 8 3.568a2 2 0 0 1 1.15-1.072c.022-.006.044 0 .061.028a.05.05 0 0 1-.006.066c-.36.34-.555.75-.788 1.178l-.323.644c-.11.223-.222.445-.35.65-.016.017-.038.034-.055.023a.05.05 0 0 1-.039-.05l-.011.01zm2.444.233a2.27 2.27 0 0 1-.944-2.588c.01-.023.028-.04.05-.04s.039.017.044.04c.122.377.2.76.317 1.138q.234.727.594 1.378c.017.022.011.05-.005.061-.017.017-.04.028-.062.011zm5.61 9.26a4 4 0 0 0-.666-.277 1.5 1.5 0 0 0-.5-.067 3 3 0 0 0-.5.067c-.239.039-.472.089-.705.122h-.011a1 1 0 0 1-.422-.05c-.023-.005-.04-.033-.034-.055 0-.028.022-.045.05-.056.111-.011.222-.055.333-.094.206-.09.417-.178.64-.256.222-.072.46-.11.7-.105.455.016.933.288 1.182.688.017.028.012.05-.005.067a.055.055 0 0 1-.067.017h.011zm-3.282 2.662a5.9 5.9 0 0 1-2.578-.706 4.4 4.4 0 0 1-1.816-1.722 3.5 3.5 0 0 1-.428-1.522c0-.022.011-.044.039-.055.022-.006.044.01.06.033.173.483.379.95.668 1.366.922 1.361 2.566 2.111 4.066 2.5.028.006.05.034.039.056 0 .022-.022.05-.056.05zM10.89 14.04a1.67 1.67 0 0 1 .25-.945 2.9 2.9 0 0 1 1.438-1.144c.023-.011.056 0 .062.022a.056.056 0 0 1-.017.072c-.539.389-1.156.945-1.256 1.661-.116 1.206.456 2.35 1.24 3.194a.056.056 0 0 1 0 .073c-.018.022-.045.022-.067.01a3.7 3.7 0 0 1-1.223-1.305 3.4 3.4 0 0 1-.438-1.644zm2.277-3.256c-1.31-.083-2.655-.167-3.96.106l-.167.039c-.056.016-.122.027-.167.055-.205.056-.394.133-.6.194a2.8 2.8 0 0 1-1.089.04 2.74 2.74 0 0 1-1.683-1.05c-.017-.023-.017-.056.006-.073a.05.05 0 0 1 .072 0q.359.309.783.517a2.56 2.56 0 0 0 1.794.189 7 7 0 0 1 .456-.156c.167-.055.333-.11.511-.15 1.35-.266 2.755-.144 4.083.19.022.01.045.032.039.066-.011.022-.033.05-.056.05zm-6.472-3.21c.878.444 1.79.827 2.717 1.166.133.055.278.094.405.16.028.006.045.034.034.056q-.01.043-.045.045a4.1 4.1 0 0 1-1.777-.333 3.4 3.4 0 0 1-1.39-1.011.055.055 0 0 1 0-.067.06.06 0 0 1 .062-.017zm-2.283.583a4.5 4.5 0 0 1-.41-1.567 6.5 6.5 0 0 1 .955-3.878c.144-.238.31-.46.472-.688.017-.028.05-.028.072-.017.022.017.033.039.022.067-.139.366-.31.722-.438 1.105a9.35 9.35 0 0 0-.567 4.928c.011.022-.006.055-.028.066-.028.006-.055 0-.067-.028zM7.33 5.55a1 1 0 0 1 .16.639.74.74 0 0 1-.355.572q-.031.025-.072-.016a.06.06 0 0 1 0-.073c.317-.366.089-.8-.211-1.089a4.3 4.3 0 0 1-1.1-1.944c-.1-.394-.11-.807-.028-1.205q.008-.043.056-.045a.055.055 0 0 1 .055.045c.067.372.156.75.3 1.1a6.8 6.8 0 0 0 .834 1.516c.122.167.26.322.36.5m4.927 16.443a5 5 0 0 1-2.344-.86 6.78 6.78 0 0 1-2.661-3.723 8.7 8.7 0 0 1-.383-2.155.055.055 0 0 1 .044-.056c.028-.01.056.012.067.04.378 1.416.822 2.788 1.655 4a6.36 6.36 0 0 0 3.65 2.643c.028.012.05.034.039.067-.006.028-.028.05-.056.05zM4.33 11.373a13.3 13.3 0 0 0-.25 2.3c-.017.777.044 1.55.178 2.31a9.64 9.64 0 0 0 1.9 4.278c.283.372.61.717.927 1.056.017.027.023.055 0 .078-.016.022-.044.022-.072.005a8.5 8.5 0 0 1-3.21-5.333 9.3 9.3 0 0 1 .416-4.733c.011-.028.039-.044.061-.033.028.005.044.033.044.06z"/>
</svg>
